X:1
T:Alle Jahre Wieder, 65.65
T:Alle Jahre Wieder, 65.65
T:Johann Christian Heinrich Rink (1770-1846)
T:Public Domain Courtesy of the Cyber Hymnal™
C:Johann Christian Heinrich Rink (1770-1846)
Z:Public Domain
Z:Courtesy of the Cyber Hymnal™
%%score 1 ( 2 3 )
L:1/8
M:4/4
K:G
V:1 treble 
V:2 bass 
V:3 bass 
V:1
 [GB]2 [GB]2 [Gd]2 [Gd]2 | [Fc]4 [FA]4 | [DG]2 [DA]2 [DB]2 [Dc]2 | [DA]8 | %4
 [Dc]2 [Dc]2 [DB]2 [DB]2 | [Ge]4 [Gd]4 | [Dd]2 [Ec]2 [DB]2 [CA]2 | [B,G]8 |] %8
V:2
 [G,D]2 [G,D]2 [G,B,]2 [G,B,]2 | [D,A,]4 [D,C]4 | [G,B,]2 [F,A,]2 G,2 [C,G,]2 | [D,F,]8 | %4
 [F,A,]2 [F,A,]2 G,2 G,2 | [C,C]4 [G,B,]4 | [B,,G,]2 [C,G,]2 [D,G,]2 [D,F,]2 | [G,,G,]8 |] %8
V:3
 x8 | x8 | x4 G,2 x2 | x8 | x4 G,2 G,2 | x8 | x8 | x8 |] %8

